!!!!SEGMENT: pl-cz--ii-87--003-001_grim-jozef--msza-druga-kirie.krn
!!!cenid: 18xx:1180
!!!COM: Grim, Józef
!!!COM-rismID:
!!!CDT: ~1800-~1899
!!!CNT:
!!!OPR: Msza druga
!!!OTL: Kirie
!!!OMV: 001
!!!PDT: 1888
!!!AGN: Sacred; Mass
!!!SMS-siglum: PL-CZ
!!!SMS-shelfmark: II-87
!!!SMS-shelfwork: 003-001 M
!!!SMS-variant:
!!!SMS-altvar:
!!!NIFC-rismSourceID: 300033226
!!!NIFC-islandoraID: pl-cz:33881
!!!URL-pdf-islandora: https://repozytorium.nifc.pl/islandora/object/pl-cz%3A33881/datastream/PDF/view
!!!URL-scan:
!!!ONB-nifc: UWAGA: części Mszy: Kirie, Gloria, Graduale, Credo, Offertorium, Sanctus, Po podniesieniu, Agnus
!!!AIN: 1 organ 1 vox
!!!key: G
!!!OMD: Andante
**kern	**kern	**kern	**text
*part2	*part2	*part1	*part1
*staff3	*staff2	*staff1	*staff1
*I"Organ	*I"Organ	*I"Głos	*
*Iorgan	*Iorgan	*Ivox	*
*ICklav	*ICklav	*ICvox	*
*IGacmp	*IGacmp	*IGsolo	*
*clefF4	*clefG2	*clefG2	*
*k[f#]	*k[f#]	*k[f#]	*
*G:	*G:	*G:	*
*M4/4	*M4/4	*M4/4	*
*met(c)	*met(c)	*met(c)	*
=1	=1	=1	=1
*	*^	*^	*
!	!	!	!LO:TX:a:t=Msza 2ga\nPrzez Juzefa Grymma Kirie	!	!
2.G 2.GG\	2b/	4g\	2b/	2d\	Nie-
.	.	4d\	.	.	.
.	4cc/	4e\	4cc/	4e\	-o-
4G\	4b/	4d\	4b/	4d\	-gar-
=2	=2	=2	=2	=2	=2
4D\	2a/	2c\	2a/	2c\	-nio-
8E\L	.	.	.	.	.
8F#\J	.	.	.	.	.
4G\	4g/	4B\	4g/	4B\	-ny
4r	8g/L	4rcyy	4r	4ryy	.
.	8b/J	.	.	.	.
*	*v	*v	*	*	*
=3	=3	=3	=3	=3
!	!LO:TX:a:t=d\nh	!	!	!
4GG/	2dd 2b\	4dd/	4b\	ca-
4G\	.	4dd/	4b\	-łem
2C/	4ee 4cc/	4ee 4cc/	4ryy	swia-
.	4cc 4a\	4cc/	4a\	-tem
=4	=4	=4	=4	=4
2.D\	2b 2g/	2b/	2g\	Bo-
!	!LO:N:vis=4	!	!	!
.	8a 8f#/	4a/	4f#\	-że
.	8g#X/L	.	.	.
4r	8a/	4r	4ryy	.
.	8bJ 8g#/	.	.	.
=5	=5	=5	=5	=5
*	*^	*	*	*
2.AA/	2cc/	4a\	2cc/	2e\	W tym
.	.	4e\	.	.	.
.	4dd 4fn/	2rcyy	4dd/	4fn\	tu
4A\	4cc 4e/	.	4cc/	4e\	przy-
*	*v	*v	*	*	*
=6	=6	=6	=6	=6
4E\	2b 2d/	2b/	2d\	-byt-
8F#\L	.	.	.	.
8G#X\J	.	.	.	.
4A\	4a 4c/	4cc 4a/	4c\	-ku
4r	8cc/L	4r	4ryy	.
.	8a/J	.	.	.
!!LO:LB:g=original
=7	=7	=7	=7	=7
*	*^	*	*	*
!	!LO:N:vis=2.	!	!	!	!
4D\	2f#/	2d\	4f#/	4d\	przyj-
8D\L	.	.	4f#/	4d\	-mij
8C\J	.	.	.	.	.
4BB/	4g/	2reyy	4g/	4d\	od
4GG/	4b 4g/	.	4b/	4g\	nas
=8	=8	=8	=8	=8	=8
!	!LO:N:vis=2.	!	!	!	!
4D\	4.a 4.f#/	2.d\	2a/	2f#\	da-
8F#\L	.	.	.	.	.
8A\J	8d/L	.	.	.	.
4D\	8e/	.	4a/	4f#\	-ry
.	8f#/	.	.	.	.
!LO:TUP:a:problem=klamra łukowa	!	!	!	!	!
12c\L	8g/	4d\	4r	4ryy	.
12B\	.	.	.	.	.
.	8b/J	.	.	.	.
12A\J	.	.	.	.	.
=9	=9	=9	=9	=9	=9
2G\	2b/	4g\	2b/	4g\	lecz
.	.	4fn\	.	4fn\	.
4GG/	4cc 4e/	2rcyy	4cc/	4e\	cóż
4G\	4b 4d/	.	4b/	4d\	ci
=10	=10	=10	=10	=10	=10
4D\	2a/	2c\	2a/	2c\	nę-
4D#X\	.	.	.	.	.
4E\	4g/	4B\	4g/	4B\	-dzne
4r	8g\L	4rAyy	4r	4ryy	.
.	8b\J	.	.	.	.
=11	=11	=11	=11	=11	=11
2BB/	4dd/	2.g\	4dd/	4g\	ztwo-
.	4dd/	.	4dd/	4g\	-rze-
2C/	4ee/	.	4ee/	4g\	-nie
.	4cc 4a/	4reyy	4cc/	4a\	dac
=12	=12	=12	=12	=12	=12
2D\	2b/	2g\	2b/	2g\	mo-
4DD/	4a/	4f#\	4a/	4f#\	-że?
8D\L	4r	4reyy	4r	4ryy	.
8C\J	.	.	.	.	.
!!LO:LB:g=original
=13	=13	=13	=13	=13	=13
1BB	2g/	1d	2g/	2d\	Przyjm
.	2fn/	.	4fn/	4d\	Sy-
.	.	.	4f/	4d\	-na
=14	=14	=14	=14	=14	=14
4C/	(4e/	(4c\	(4e/	(4c\	twe-
4AA/	4cc 4e/))	4reyy	4cc/)	4e\)	.
4BB/	4b 4d/	2rcyy	4b/	4d\	-go
4C/	4a 4c/	.	4a/	4c\	pod-
*	*v	*v	*	*	*
=15	=15	=15	=15	=15
2D\	2g 2B/	2g/	2B\	-czas
2DD/	4f# 4A/	4f#/	4A\	tej
.	4a 4c/	4a/	4c\	o-
=16	=16	=16	=16	=16
*	*^	*	*	*
4D\	2a/	2c\	2a/	2c\	-fia-
8E\L	.	.	.	.	.
8F#\J	.	.	.	.	.
4G\	4g 4B/	4rAyy	4g/	4B\	-ry.
4r	8b/L	4re	4r	4ryy	.
.	8g/J	.	.	.	.
*	*	*	*v	*v	*
=17	=17	=17	=17	=17
4r	4dd/	4r	1r	.
4c\	4f#/	2.d\	.	.
4B\	4g/	.	.	.
4A\	4a/	.	.	.
=18	=18	=18	=18	=18
*	*	*^	*	*
4G\	2b/	4d\	2g\	1r	.
4Fn\	.	4g\	.	.	.
4E\	4cc/	2g\	2rBByy	.	.
4D\	4b/	.	.	.	.
!!LO:LB:g=original
=19	=19	=19	=19	=19	=19
2C/	4b/	2e\	2rGGyy	1r	.
.	4a/	.	.	.	.
2D\	4g/	4B\	2d/	.	.
.	4f#/	4A\	.	.	.
*	*v	*v	*v	*	*
=20	=20	=20	=20
4G\	2.g 2.d 2.B/	1r	.
4D\	.	.	.
4GG/	.	.	.
4r	4r	.	.
==	==	==	==
*-	*-	*-	*-
!!!system-decoration: <s1>(s2,s3)
!!!ENC: Marcin Jachim
!!!END: 2020-11-07
!!!ENC: Marta Lawrence
!!!END: 2021-11-14
